local/share/icons/dracula-icons-main/scalable/mimetypes/text-x-copying.svg

<?xml version="1.0" encoding="UTF-8"?>
<svg xmlns="http://www.w3.org/2000/svg" xmlns:xlink="http://www.w3.org/1999/xlink" width="64" height="64" viewBox="0 0 64 64">
<defs>
<filter id="filter-remove-color" x="0%" y="0%" width="100%" height="100%">
<feColorMatrix color-interpolation-filters="sRGB" values="0 0 0 0 1 0 0 0 0 1 0 0 0 0 1 0 0 0 1 0" />
</filter>
<mask id="mask-0">
<g filter="url(#filter-remove-color)">
<rect x="-6.4" y="-6.4" width="76.8" height="76.8" fill="rgb(0%, 0%, 0%)" fill-opacity="0.1"/>
</g>
</mask>
<linearGradient id="linear-pattern-0" gradientUnits="userSpaceOnUse" x1="49.570999" y1="52.714001" x2="51.714001" y2="54.856998" gradientTransform="matrix(0.617345, 0, 0, 0.617345, -18.167916, -19.050025)">
<stop offset="0" stop-color="rgb(0%, 0%, 0%)" stop-opacity="1"/>
<stop offset="1" stop-color="rgb(0%, 0%, 0%)" stop-opacity="0"/>
</linearGradient>
<clipPath id="clip-0">
<rect x="0" y="0" width="17" height="17"/>
</clipPath>
<g id="source-110" clip-path="url(#clip-0)">
<path fill-rule="evenodd" fill="url(#linear-pattern-0)" d="M 14.816406 12.171875 L 11.113281 15.875 L 13.492188 15.875 C 14.226562 15.875 14.816406 15.285156 14.816406 14.550781 Z M 14.816406 12.171875 "/>
</g>
</defs>
<path fill-rule="nonzero" fill="rgb(95.686275%, 95.686275%, 95.686275%)" fill-opacity="1" d="M 3.441406 1.058594 L 13.492188 1.058594 C 14.222656 1.058594 14.816406 1.652344 14.816406 2.382812 L 14.816406 14.550781 C 14.816406 15.28125 14.222656 15.875 13.492188 15.875 L 3.441406 15.875 C 2.707031 15.875 2.117188 15.28125 2.117188 14.550781 L 2.117188 2.382812 C 2.117188 1.652344 2.707031 1.058594 3.441406 1.058594 Z M 3.441406 1.058594 "/>
<g mask="url(#mask-0)">
<use xlink:href="#source-110"/>
</g>
<path fill-rule="nonzero" fill="rgb(60%, 60%, 60%)" fill-opacity="1" d="M 8.519531 10.5625 C 8.25 10.5625 8.003906 10.515625 7.769531 10.417969 C 7.542969 10.324219 7.347656 10.1875 7.175781 10.007812 C 7.003906 9.832031 6.871094 9.613281 6.777344 9.351562 C 6.679688 9.085938 6.632812 8.785156 6.632812 8.453125 C 6.632812 8.125 6.683594 7.832031 6.785156 7.582031 C 6.894531 7.320312 7.039062 7.101562 7.214844 6.925781 C 7.394531 6.738281 7.597656 6.601562 7.832031 6.515625 C 8.0625 6.417969 8.304688 6.371094 8.558594 6.371094 C 8.894531 6.371094 9.164062 6.417969 9.367188 6.515625 C 9.578125 6.601562 9.722656 6.675781 9.796875 6.730469 L 9.605469 7.191406 C 9.5 7.136719 9.367188 7.078125 9.203125 7.015625 C 9.046875 6.949219 8.832031 6.914062 8.558594 6.914062 C 8.183594 6.914062 7.867188 7.046875 7.617188 7.3125 C 7.371094 7.582031 7.246094 7.960938 7.246094 8.453125 C 7.246094 8.957031 7.367188 9.347656 7.605469 9.621094 C 7.851562 9.886719 8.183594 10.019531 8.601562 10.019531 C 8.894531 10.019531 9.121094 9.988281 9.285156 9.925781 C 9.457031 9.859375 9.578125 9.800781 9.65625 9.753906 L 9.828125 10.246094 C 9.742188 10.300781 9.582031 10.367188 9.359375 10.449219 C 9.132812 10.523438 8.851562 10.5625 8.519531 10.5625 Z M 11.941406 8.460938 C 11.941406 9.050781 11.84375 9.570312 11.652344 10.027344 C 11.460938 10.488281 11.207031 10.875 10.882812 11.199219 C 10.570312 11.511719 10.203125 11.753906 9.777344 11.925781 C 9.363281 12.089844 8.925781 12.171875 8.464844 12.171875 C 8.007812 12.171875 7.566406 12.089844 7.144531 11.925781 C 6.726562 11.753906 6.359375 11.511719 6.039062 11.199219 C 5.722656 10.875 5.472656 10.488281 5.28125 10.027344 C 5.089844 9.570312 4.992188 9.050781 4.992188 8.460938 C 4.992188 7.882812 5.089844 7.363281 5.28125 6.902344 C 5.472656 6.441406 5.722656 6.050781 6.039062 5.734375 C 6.359375 5.421875 6.726562 5.183594 7.144531 5.019531 C 7.566406 4.847656 8.007812 4.761719 8.464844 4.761719 C 8.925781 4.761719 9.363281 4.847656 9.777344 5.019531 C 10.203125 5.183594 10.570312 5.421875 10.882812 5.734375 C 11.207031 6.050781 11.460938 6.441406 11.652344 6.902344 C 11.84375 7.363281 11.941406 7.878906 11.941406 8.460938 Z M 11.335938 8.460938 C 11.335938 7.988281 11.265625 7.558594 11.121094 7.171875 C 10.976562 6.78125 10.777344 6.449219 10.527344 6.175781 C 10.273438 5.894531 9.96875 5.679688 9.613281 5.53125 C 9.265625 5.378906 8.882812 5.304688 8.464844 5.304688 C 8.050781 5.304688 7.664062 5.378906 7.308594 5.53125 C 6.960938 5.679688 6.660156 5.894531 6.40625 6.175781 C 6.152344 6.449219 5.957031 6.78125 5.8125 7.171875 C 5.667969 7.558594 5.597656 7.988281 5.597656 8.460938 C 5.597656 8.933594 5.667969 9.363281 5.8125 9.753906 C 5.957031 10.140625 6.152344 10.476562 6.40625 10.757812 C 6.660156 11.03125 6.960938 11.246094 7.308594 11.402344 C 7.664062 11.550781 8.050781 11.628906 8.464844 11.628906 C 8.882812 11.628906 9.265625 11.550781 9.613281 11.402344 C 9.96875 11.246094 10.273438 11.03125 10.527344 10.757812 C 10.777344 10.476562 10.976562 10.140625 11.121094 9.753906 C 11.265625 9.363281 11.335938 8.933594 11.335938 8.460938 Z M 11.335938 8.460938 "/>
</svg>

<svg width="64" height="64" version="1.1" viewBox="0 0 16.933 16.933" xmlns="http://www.w3.org/2000/svg">
 <defs>
  <linearGradient id="a" x1="49.571" x2="51.714" y1="52.714" y2="54.857" gradientTransform="matrix(2.3333,0,0,2.3333,-68.667,-72.001)" gradientUnits="userSpaceOnUse">
   <stop offset="0"/>
   <stop stop-opacity="0" offset="1"/>
  </linearGradient>
 </defs>
 <g transform="scale(.26458)">
  <rect x="8" y="4" width="48" height="56" ry="5" fill="#f4f4f4" style="paint-order:stroke fill markers"/>
  <path d="m56 46-14 14h9c2.77 0 5-2.23 5-5z" fill="url(#a)" fill-rule="evenodd" opacity=".1" stroke-width="8.8191" style="paint-order:stroke fill markers"/>
 </g>
 <path d="m8.5177 10.562q-0.39961 0-0.74799-0.14345-0.33813-0.14345-0.5943-0.40986-0.25616-0.26641-0.39961-0.65577-0.14345-0.39961-0.14345-0.90169 0-0.49183 0.1537-0.87095 0.16394-0.38936 0.43035-0.65577 0.26641-0.27665 0.61479-0.40986 0.34838-0.14345 0.7275-0.14345 0.50208 0 0.80947 0.14345 0.31764 0.1332 0.43035 0.21518l-0.19468 0.46109q-0.1537-0.08197-0.39961-0.17419-0.23567-0.10246-0.64553-0.10246-0.56355 0-0.94267 0.39961-0.36887 0.39961-0.36887 1.1374 0 0.75824 0.35863 1.1681 0.36887 0.39961 0.99391 0.39961 0.4406 0 0.68651-0.09222 0.25616-0.10246 0.36887-0.17419l0.17419 0.49183q-0.1332 0.08197-0.47134 0.20493-0.33813 0.11271-0.84021 0.11271zm3.4223-2.1005q0 0.8812-0.2869 1.5677-0.2869 0.68651-0.76848 1.1681-0.47134 0.47134-1.1066 0.7275-0.62503 0.24592-1.3115 0.24592-0.68651 0-1.3218-0.24592-0.62503-0.25616-1.1066-0.7275-0.47134-0.48158-0.75824-1.1681-0.2869-0.68651-0.2869-1.5677 0-0.87095 0.2869-1.5575 0.2869-0.69676 0.75824-1.1681 0.48158-0.47134 1.1066-0.71725 0.63528-0.25616 1.3218-0.25616 0.68651 0 1.3115 0.25616 0.63528 0.24592 1.1066 0.71725 0.48158 0.47134 0.76848 1.1681 0.2869 0.68651 0.2869 1.5575zm-0.60454 0q0-0.707-0.21518-1.2911-0.21518-0.58405-0.5943-0.99391-0.37912-0.4201-0.91193-0.64553-0.52257-0.22542-1.1476-0.22542t-1.1578 0.22542q-0.52257 0.22542-0.90169 0.64553-0.37912 0.40986-0.59429 0.99391-0.21518 0.58405-0.21518 1.2911t0.21518 1.2911q0.21518 0.58405 0.59429 1.0042 0.37912 0.40986 0.90169 0.64553 0.53282 0.22542 1.1578 0.22542 0.62503 0 1.1476-0.22542 0.53282-0.23567 0.91194-0.64553 0.37912-0.4201 0.5943-1.0042 0.21518-0.58405 0.21518-1.2911z" enable-background="new" fill="#999"/>
</svg>
